X:1
T:E minor Abraham Wood, 1786
T:Nahum Tate and Nicholas Brady, 1698 New Version (Psalm 42)     86. 86. (C. M.)
T:Pepperell
T:Transcribed from Norman's Federal Harmony, 1793.
%%score [ 1 2 3 4 ]
L:1/8
Q:1/4=100
M:2/2
K:G
V:1 treble nm="Treble" snm="Tr."
V:2 treble nm="Counter" snm="C."
V:3 treble-8 nm="Tenor" snm="T."
V:4 bass nm="Bass" snm="B."
V:1
 B4 | B6 d2 | e6 dc | B4 B4 | (B3 cBAGF | G3 F E2) G2 | (A2 B2) d4 | d4 B4 | B8 |: z8 | z8 | %11
w: 1.~As|pants the|hart for *|coo- ling|treams,~ _ _ _ _ _|_ _ _ When|hea- * ted|in the|chase,|||
w: 2.~For|thee, my|God, the *|li- ving|God,~ _ _ _ _ _|_ _ _ My|thir- * sty|soul doth|pine,|||
w: 3.~Why|rest- less,|why cast *|down, my|soul?~ _ _ _ _ _|_ _ _ Trust|God, * who|will em-|ploy|||
w: 4.~Why|rest- less,|why cast *|down, my|soul?~ _ _ _ _ _|_ _ _ Hope|still, * and|thou shalt|sing|||
 B4 B2 B2 | B6 B2 | B4 B4 | B6 B2 | G2 A2 B2 A2 | G8 | B4 c2 c2 | (B3 A G2) A2 | B6 B2 | B6 A2 | %21
w: So longs my|soul, O|God, for|thee, and|thy re- fre- shing|grace.|So longs my|soul,~ _ _ O|God, for|thee, and|
w: O when shall|I be-|hold thy|face, thou|ma- jes- ty di-|vine?|O when shall|I~ _ _ be-|hold thy|face, O|
w: His aid for|thee, and|change these|sighs To|thank- ful hymns of|joy.|His aid for|thee,~ _ _ and|change these|sighs To|
w: The praise of|him who|is thy|God, Thy|health's e- ter- nal|sprng.|The praise of|him~ _ _ who|is thy|God, Thy|
 d4 (d3 e) | (d3 c B2) B2 | B8 :| %24
w: thy re- *|fre- * * shing|grace.|
w: ma- jes- *|ty~ _ _ di-|vine?|
w: thank- ful~ _|hymns~ _ _ of|joy.|
w: health's e- *|ter- * * nal|spring.|
V:2
 E4 | E6 F2 | G6 A2 | G4 F4 | (G4 FEFG | E6) E2 | E4 F4 | F4 E4 | ^D8 |: z8 | z8 | F4 F2 F2 | %12
 G6 G2 | G4 E4 | (E4 F2) G2 | E2 F2 E2 ^D2 | E8 | (D3 E) F2 E2 | (D4 C2) F2 | E6 F2 | G6 A2 | %21
 G4 F4 | (F2 E2) ^D4 | E8 :| %24
V:3
 E4 | G6 A2 | B6 A2 | (B2 c2) (d2 B2) | (e4 dcBA | B6) B2 | (c2 B2) (A2 FG) | A4 G4 | F8 |: z8 | %10
w: 1.~As|pants the|hart for|coo- * ling *|streams,~ _ _ _ _|_ When|hea- * ted * *|in the|chase,||
w: 2.~For|thee, my|God, the|li- * ving *|God,~ _ _ _ _|_ My|thir- * sty * *|soul doth|pine,||
w: 3.~Why|rest- less,|why cast|down, * my *|soul?~ _ _ _ _|_ Trust|God, * who * *|will em-|ploy||
w: 4.~Why|rest- less,|why cast|down, * my *|soul?~ _ _ _ _|_ Hope|still, * and * *|thou shalt|sing||
 B4 B2 B2 | d6 ^d2 | e4 ^d4 | e6 B2 | (G2 A2) (F2 G2) | (E2 F2) (G2 A2) | B8 | B4 A2 A2 | %18
w: So longs my|soul, O|God, for|thee, And|thy * re- *|fre- * shing *|grace.|So longs my|
w: O when shall|I be-|hold thy|face, Thou|ma- * jes- *|ty * di- *|vine?|O when shall|
w: His aid for|thee, and|change these|sighs To|thank- * ful *|hymns * of *|joy.|His aid for|
w: The praise of|him who|is thy|God, Thy|health's * e- *|ter- * nal *|spring.|The praise of|
 (B4 e2) f2 | (g3 f e2) ^d2 | e6 dc | (B2 G2) (A2 Bc) | (B3 A) (G2 F2) | E8 :| %24
w: soul,~ _ O|God,~ _ _ for|thee, and *|thy * re- * *|fre- * shing *|grace.|
w: I~ _ be-|hold~ _ _ thy|face, thou *|ma- * jes- * *|ty~ _ di- *|vine?|
w: thee.~ _ and|change~ _ _ these|sighs for *|thank- * ful~ _ _|hymns~ _ of *|joy.|
w: him~ _ who|is~ _ _ thy|God, Thy *|health's * e- * *|ter- * nal *|spring.|
V:4
 E,4 | E,6 B,,2 | E,6 F,2 | (G,3 A,) B,4 | (E,4 B,,2 ^C,^D, | E,3 F, G,2) G,2 | A,2 G,2 (F,2 E,2) | %7
w: |||||||
w: |||||||
w: |||||||
w: |||||||
 D,4 E,4 | B,,8 |: E,4 E,2 E,2 | G,6 E,2 | B,,4 B,,4 | E,4 G,4 | E,4 E,4 | (E,2 D,C, B,,2) E,2 | %15
w: ||So longs my|soul, O|God, for|thee, O|God, for|thee,~ _ _ _ And|
w: ||O when shall|I be-|hold thy|face, be-|hold thy|face,~ _ _ _ Thou|
w: ||His aid for|thee, and|change these|sighs and|change these|sighs,~ _ _ _ To|
w: ||The praise of|him who|is thy|God, who|is thy|God,~ _ _ _ Thy|
 E,2 ^D,2 E,2 F,2 | E,8 | G,4 F,2 F,2 | (G,3 F, E,2) D,2 | (G,4 A,2) B,2 | E,6 F,2 | G,4 (D,3 C,) | %22
w: thy re- fre- shing|||||||
w: ma- jes- ty di-|||||||
w: thank- ful hymns of|||||||
w: health's e- ter- nal|||||||
 B,,4 B,,4 | E,8 :| %24
w: ||
w: ||
w: ||
w: ||

